design-system/components/icon/icons/plus.svg

<?xml version="1.0" encoding="UTF-8"?>
<svg width="40px" height="40px" viewBox="0 0 40 40" version="1.1" xmlns="http://www.w3.org/2000/svg" xmlns:xlink="http://www.w3.org/1999/xlink">
    <!-- Generator: Sketch 64 (93537) - https://sketch.com -->
    <title>icon/plus</title>
    <desc>Created with Sketch.</desc>
    <g id="icon/plus" stroke="none" stroke-width="1" fill="none" fill-rule="evenodd">
        <path d="M40.0001,19.9999 C40.0001,21.6569 38.6561,22.9999 36.9981,22.9999 L23.0001,22.9999 L23.0001,36.9989 C23.0001,38.6559 21.6571,39.9999 20.0001,39.9999 C18.3431,39.9999 17.0001,38.6559 17.0001,36.9989 L17.0001,22.9999 L3.0011,22.9999 C1.3441,22.9999 0.0001,21.6569 0.0001,19.9999 C0.0001,18.3429 1.3441,16.9999 3.0011,16.9999 L17.0001,16.9999 L17.0001,3.0019 C17.0001,1.3439 18.3431,-0.0001 20.0001,-0.0001 C21.6571,-0.0001 23.0001,1.3439 23.0001,3.0019 L23.0001,16.9999 L36.9981,16.9999 C38.6561,16.9999 40.0001,18.3429 40.0001,19.9999" id="shape-bg" fill="#000000"></path>
    </g>
</svg>

<svg height="40" viewBox="0 0 40 40" width="40" xmlns="http://www.w3.org/2000/svg">
    <path d="m40.0001 19.9999c0 1.657-1.344 3-3.002 3h-13.998v13.999c0 1.657-1.343 3.001-3 3.001s-3-1.344-3-3.001v-13.999h-13.999c-1.657 0-3.001-1.343-3.001-3s1.344-3 3.001-3h13.999v-13.998c0-1.658 1.343-3.002 3-3.002s3 1.344 3 3.002v13.998h13.998c1.658 0 3.002 1.343 3.002 3" fill-rule="evenodd"/>
</svg>
